X: 170
T:Larry O'Gaff
% Nottingham Music Database
S:Jimmy MacKay, via EF
Y:AB
M:6/8
K:G
P:A
(3d/2e/2f/2|"G"g2G BAG|"G"ded dBG|"C"cec "G"BdB|"Am"ABc "D7"def|
"G"g2G BAG|"G"ded dBG|"C"cec "G"BdB|"D7"ABA "G"G2:|
P:B
d|"D7"def "G"gfg|"D7"aba afd|"D7"dfg aga|"G"bgg g2d|
"D"def "C"gfe|"G"ded dBG|"C"cec "G"BdB|"D7"ABA "G"G2|


